!!!COA:	Josquin des Prez
!!!CDT:	~1450-1521/08/27
!!!COA2: Bauldeweyn
!!!COA3: Mouton
!!!OPR:	Missa Da pacem
!!!ONM:	4
!!!OTL:	Sanctus
!!!AGN:	Mass; Sanctus
!!!SCT:	NJE 3.2
!!!SCA:	New Josquin Edition 3.2
!!!voices: 4
!!!voices-OPR:	4
**kern	**kern	**kern	**kern
*staff4	*staff3	*staff2	*staff1
*Ivox	*Ivox	*Ivox	*Ivox
*I"Bassus	*I"Tenor	*I"Altus	*I"Superius
*I'B	*I'T	*I'A	*I'S
*clefF4	*clefGv2	*clefGv2	*clefG2
*k[b-]	*k[b-]	*k[b-]	*k[b-]
*>[A,B,C,D,C]	*>[A,B,C,D,C]	*>[A,B,C,D,C]	*>[A,B,C,D,C]
*>Sanctus[A]	*>Sanctus[A]	*>Sanctus[A]	*>Sanctus[A]
*>Pleni[B]	*>Pleni[B]	*>Pleni[B]	*>Pleni[B]
*>Osanna[C]	*>Osanna[C]	*>Osanna[C]	*>Osanna[C]
*>Benedictus[D]	*>Benedictus[D]	*>Benedictus[D]	*>Benedictus[D]
*>A	*>A	*>A	*>A
*M3/1	*M3/1	*M3/1	*M3/1
*met(O)	*met(O)	*met(O)	*met(O)
=1-	=1-	=1-	=1-
!!section: Sanctus
!!!OMD: Sanctus
0.r	0.r	0G	0.r
.	.	1F	.
=2	=2	=2	=2
0.r	0.r	2.G/	0g
.	.	4A/	.
.	.	2B-\	.
.	.	2G/	.
.	.	1A	1f
=3	=3	=3	=3
0G	0.r	4G/	2.g/
.	.	4A/	.
.	.	4B-\	.
.	.	4c\	4a/
.	.	2d\	2b-\
.	.	2e\	2g/
1F	.	2f\	1a
.	.	[2d\	.
=4	=4	=4	=4
2.G\	0.r	2d\]	1g
.	.	2e\	.
4A\	.	.	.
2B-\	.	2d\	1r
2G\	.	1g	.
1A	.	.	2r
.	.	2f#i\	[2cc\
=5	=5	=5	=5
1G	0G	1g	2cc\]
.	.	.	2b-\
1C	.	1e	1cc
1D	1F	2.d\	1a
.	.	4c\	.
=6	=6	=6	=6
1E-i	1G	2.B-\	1g
.	.	8A/L	.
.	.	8G/J	.
2D\	1B-	2F/	1r
2BB-/	.	1G	.
1AA	1c	.	2r
.	.	2F#i/	2a/
=7	=7	=7	=7
2GG/	1B-	1G	1b-
1G	.	.	.
.	2r	1A	2.cc\
2F\	2A/	.	.
.	.	.	4b-\
1G	1B-	2r	2g/
.	.	2d\	2b-\
=8	=8	=8	=8
2.F\	2.c\	1f	1a
4D\	4B-\	.	.
4E\	2G/	2e\	2g/
4F\	.	.	.
2G\	2B-\	2d\	1g
2C/	1A	2e\	.
2D\	.	2d\	2f#i/
=9	=9	=9	=9
2.E-i\	0.G	2B-\	0g
.	.	1e-	.
4D\	.	.	.
2C/	.	.	.
2BB-/	.	2d\	.
1C	.	1c	1r
=10	=10	=10	=10
0GG	0.r	1B-	0b-
.	.	2r	.
.	.	2.G/	.
1r	.	.	1b-
.	.	4A/	.
.	.	4B-\	.
.	.	4c\	.
=11	=11	=11	=11
0.r	0.r	2d\	1.b-
.	.	2.e-i\	.
.	.	4d\	.
.	.	1g	4a/
.	.	.	4g/
.	.	.	1a
.	.	2f#i\	.
=12	=12	=12	=12
1GG	0B-	1g	0g
4GG/	.	1r	.
4AA/	.	.	.
4BB-/	.	.	.
4C/	.	.	.
2D\	1B-	1r	1r
2E-i\	.	.	.
=13	=13	=13	=13
2D\	1.B-	0.r	0.r
2.E-i\	.	.	.
4D\	.	.	.
1G	4A/	.	.
.	4G/	.	.
.	1A	.	.
2F#i\	.	.	.
=14	=14	=14	=14
0G	1G	2r	2r
.	.	1g	2b-\
.	1r	.	2.b-\
.	.	4f\	.
.	.	4e\	4cc\
1r	1r	2d\	2dd\
.	.	2e\	2cc\
=15	=15	=15	=15
0.r	0.r	2f\	2dd\
.	.	2c\	2.ee-i\
.	.	1d	.
.	.	.	4dd\
.	.	.	1dd
.	.	1e-i	.
.	.	.	2cc\
=16	=16	=16	=16
2r	2r	0d	1dd
1G	2B-\	.	.
.	2.B-\	.	1r
4F\	.	.	.
4E\	4c\	.	.
2D\	2d\	1r	1r
2E\	2c\	.	.
=17	=17	=17	=17
2F\	2d\	0.r	0.r
2C/	2.e-i\	.	.
1D	.	.	.
.	4d\	.	.
.	1d	.	.
1E-i	.	.	.
.	2c\	.	.
=18	=18	=18	=18
0D	0d	1.A	1.f
.	.	2A/	2f/
[1BB-	1r	[1B-	1f
=19	=19	=19	=19
2BB-/]	0d	2B-\]	1d
2BB-/	.	4A/	.
.	.	4G/	.
1BB-	.	1F	1f
1GG	1d	1B-	1g
=20	=20	=20	=20
1AA	1c	1A	2f/
.	.	.	2.e/
2GG/	1B-	1r	.
.	.	.	4d/
1G	.	.	1b-
.	2.B-\	2G/	.
4F\	.	2A/	4a/
4E\	4c\	.	4g/
=21	=21	=21	=21
2D\	2d\	2B-\	2f/
2C/	2.e-i\	2c\	2.cc\
1G	.	2d\	.
.	4d\	.	4b-\
.	2B-\	2e-i\	1b-
1F	1c	1f	.
.	.	.	2a/
=22	=22	=22	=22
2.BB-/	1B-	0d	1b-
4C/	.	.	.
2D\	1r	.	2r
2.GG/	.	.	1b-
.	2r	[1B-	.
4AA/	.	.	.
4BB-/	2B-\	.	4a/
4C/	.	.	4g/
=23	=23	=23	=23
2D\	1B-	2B-\]	2f/
2E\	.	4A/	2g/
.	.	4G/	.
2F\	1A	2F/	2.a/
2C/	.	2E/	.
.	.	.	4g/
1D	1B-	1F	2f/
.	.	.	4e/
.	.	.	4d/
=24	=24	=24	=24
1C	1c	2G/	4e/
.	.	.	4d/
.	.	2.e-\	2.a/
1E-i	2B-\	.	.
.	.	4d\	4g/
.	2G/	4B-\	1g
.	.	4c\	.
1D	1A	[1d	.
.	.	.	2f#i/
=25	=25	=25	=25
0G	0G	0d]	1g
.	.	.	1r
2r	1r	2.c\	1a
[2F\	.	.	.
.	.	4B-\	.
=26	=26	=26	=26
2F\]	1r	2A/	2f/
2E\	.	2G/	2g/
2F\	2r	2c\	2a/
2G\	1B-	2B-\	2d/
2E-i\	.	2e-i\	2g/
2F\	2A/	[2d\	2a/
=27	=27	=27	=27
2G\	2B-\	4d\]	2d/
.	.	4c\	.
1F	2c\	4A/	1a
.	.	4B-\	.
.	2A/	4c\	.
.	.	4d\	.
4E-i\	2B-\	2.e-\	1g
4D\	.	.	.
1E-i	2c\	.	.
.	.	4d\	.
.	[2B-\	4B-\	2e-i/
.	.	4c\	.
=28	=28	=28	=28
0D	2B-\]	0.d	2f/
.	4A/	.	1g
.	4G/	.	.
.	1A	.	.
.	.	.	2f#i/
1r	1G	.	1g
=29	=29	=29	=29
2r	1r	2.c\	1a
1F	.	.	.
.	.	4B-\	.
.	1r	2A/	2f/
2E\	.	2G/	2g/
2F\	2r	2c\	2a/
2G\	[2B-\	2B-\	2d/
=30	=30	=30	=30
2E-i\	2B-\]	2e-\	2g/
2F\	2A/	2.d\	2a/
2G\	2B-\	.	2d/
.	.	4c\	.
1F	2c\	4A/	1a
.	.	4B-\	.
.	2A/	2.c\	.
4E-i\	2B-\	.	[2g/
4D\	.	4B-\	.
=31	=31	=31	=31
1E-i	2c\	4G/	2g/]
.	.	4A/	.
.	1B-	4B-\	2e-i/
.	.	4c\	.
2D\	.	4d\	2f/
.	.	4B-\	.
4C/	4A/	2.e-i\	1g
4BB-/	4G/	.	.
2C/	1A	.	.
.	.	4d\	.
2D\	.	[2d\	2f#i/
=32	=32	=32	=32
2BB-/	[0.Gl	4d\]	[0.gl
.	.	4c\	.
2C/	.	1c	.
1GG	.	.	.
.	.	2B-\	.
1C	.	1c	.
=33	=33	=33	=33
0.GGl	0.G]	0.dl	0.g]
!!LO:LB:i:g=z
=34||	=34||	=34||	=34||
*>B	*>B	*>B	*>B
!!section: Pleni sunt celi
!!!OMD: Pleni sunt celi
*M2/1	*M2/1	*M2/1	*M2/1
*met(C|)	*met(C|)	*met(C|)	*met(C|)
0r	1G	0r	0r
.	1F	.	.
=35	=35	=35	=35
1r	2G/	0r	0r
.	2A/	.	.
1D	1B-	.	.
=36	=36	=36	=36
1C	1c	0r	0r
2D\	1B-	.	.
2E\	.	.	.
=37	=37	=37	=37
1F	2r	0r	0r
.	2A/	.	.
1G	1B-	.	.
=38	=38	=38	=38
1F	2.c\	0r	0r
.	4B-\	.	.
2r	1G	.	.
2E\	.	.	.
=39	=39	=39	=39
1F	1A	0r	0r
2.G\	2G/	.	.
.	[2B-\	.	.
4F\	.	.	.
=40	=40	=40	=40
1D	4B-\]	0r	0r
.	4A/	.	.
.	2F/	.	.
1E	1G	.	.
=41	=41	=41	=41
2D\	2F/	0r	0r
2.F\	2.A/	.	.
4E\	4G/	.	.
2C/	2G/	.	.
=42	=42	=42	=42
1D	2F/	0r	0r
.	2D/	.	.
1C	1E	.	.
=43	=43	=43	=43
2BB-/	2.D/	0r	0r
2.D\	.	.	.
.	4E/	.	.
.	4F/	.	.
4C/	4G/	.	.
2C/	[2A/	.	.
=44	=44	=44	=44
2BB-/	4A/]	0r	0r
.	4G/	.	.
2GG/	1G	.	.
1AA	.	.	.
.	2F#i/	.	.
=45	=45	=45	=45
0GG	1G	1r	0b-
.	1r	1G	.
=46	=46	=46	=46
0r	0r	4G/	0b-
.	.	4A/	.
.	.	4B-\	.
.	.	4c\	.
.	.	2d\	.
.	.	2e-i\	.
=47	=47	=47	=47
0r	0r	2d\	1b-
.	.	2e-i\	.
.	.	2f\	2a/
.	.	[2g\	[2b-\
=48	=48	=48	=48
0r	0r	2g\]	2b-\]
.	.	4f\	4a/
.	.	4e\	4g/
.	.	2f\	1a
.	.	2d\	.
=49	=49	=49	=49
0r	0r	1e	2g/
.	.	.	1b-
.	.	2d\	.
.	.	2f\	2a/
=50	=50	=50	=50
0r	0r	2e\	2g/
.	.	2d\	1b-
.	.	1f	.
.	.	.	2a/
=51	=51	=51	=51
0r	0r	2e\	2g/
.	.	1d	2f/
.	.	.	1e
.	.	2c#i\	.
=52	=52	=52	=52
0r	0r	1d	4d/
.	.	.	4e/
.	.	.	4f/
.	.	.	4g/
.	.	1f	4a/
.	.	.	4b-\
.	.	.	4cc\
.	.	.	4dd\
=53	=53	=53	=53
0r	0r	0e	2ee\
.	.	.	1dd
.	.	.	2cc#i\
=54	=54	=54	=54
1GG	1r	0d	1dd
4GG/	[1d	.	1r
4AA/	.	.	.
4BB-/	.	.	.
4C/	.	.	.
=55	=55	=55	=55
2D\	1d]	0r	0r
4BB-/	.	.	.
4C/	.	.	.
4D\	1d	.	.
4E\	.	.	.
4F\	.	.	.
4G\	.	.	.
=56	=56	=56	=56
2A\	0c	0r	0r
2.B-\	.	.	.
8A\L	.	.	.
8G\J	.	.	.
2A\	.	.	.
=57	=57	=57	=57
1B-	1.B-	0r	0r
1r	.	.	.
.	4A/	.	.
.	4G/	.	.
=58	=58	=58	=58
0D	2F/	0r	0r
.	2.B-\	.	.
.	4A/	.	.
.	[2A/	.	.
=59	=59	=59	=59
0D	4A/]	0r	0r
.	4G/	.	.
.	4F/	.	.
.	4E/	.	.
.	2F/	.	.
.	[2A/	.	.
=60	=60	=60	=60
1C	4A/]	0r	0r
.	4G/	.	.
.	2E/	.	.
1BB-	4D/	.	.
.	4E/	.	.
.	4F/	.	.
.	4G/	.	.
=61	=61	=61	=61
0C	2A/	0r	0r
.	1B-	.	.
.	2A/	.	.
=62	=62	=62	=62
0BB-	0B-	0r	2r
.	.	.	2b-\
.	.	.	1b-
=63	=63	=63	=63
0r	0r	2r	1a
.	.	2d\	.
.	.	1d	1b-
=64	=64	=64	=64
0r	0r	1c	2.cc\
.	.	.	4b-\
.	.	[1d	2.a/
.	.	.	4g/
=65	=65	=65	=65
0r	0r	2d\]	2f/
.	.	1e-i	2g/
.	.	.	1b-
.	.	2d\	.
=66	=66	=66	=66
0r	0r	2c\	2a/
.	.	2B-\	2.g/
.	.	1A	.
.	.	.	8f#i/L
.	.	.	8e/J
.	.	.	2f#i/
=67	=67	=67	=67
0r	2r	0G	0g
.	2B-\	.	.
.	1B-	.	.
=68	=68	=68	=68
2r	1A	0r	0r
2D\	.	.	.
1D	1B-	.	.
=69	=69	=69	=69
1C	2.c\	0r	0r
.	4B-\	.	.
[1D	2.A/	.	.
.	4G/	.	.
=70	=70	=70	=70
2D\]	2F/	0r	0r
1E-i	2G/	.	.
.	1B-	.	.
2D\	.	.	.
=71	=71	=71	=71
2C/	2A/	0r	0r
2BB-/	2.G/	.	.
1AA	.	.	.
.	8F#i/L	.	.
.	8E/J	.	.
.	2F#i/	.	.
=72	=72	=72	=72
1GG	0G	1.d	2r
.	.	.	1b-
1r	.	.	.
.	.	2e\	2b-\
=73	=73	=73	=73
1D	2r	1f	2a/
.	2F/	.	2b-\
2C/	2G/	2e\	2.cc\
[2F\	2A/	[2d\	.
.	.	.	4b-\
=74	=74	=74	=74
2F\]	2F/	4d\]	2a/
.	.	4B-\	.
2E\	2G/	2c\	2g/
1D	2A/	1d	2f/
.	2B-\	.	[2a/
=75	=75	=75	=75
1C	2.c\	1e-	4a/]
.	.	.	4g/
.	.	.	1g
.	4B-\	.	.
1D	4A/	[1d	.
.	4G/	.	.
.	2A/	.	2f#i/
=76	=76	=76	=76
2r	1G	1d]	2g/
1G	.	.	1b-
.	2r	2r	.
2F\	[2d\	[2f\	2a/
=77	=77	=77	=77
2D\	2d\]	2f\]	2f/
2E\	2c\	4e\	2g/
.	.	4d\	.
2F\	2A/	2c\	2a/
2G\	2B-\	4B-\	2d/
.	.	4A/	.
=78	=78	=78	=78
2E\	2c\	2G/	2g/
2F\	2d\	2A/	2f/
2G\	2B-\	1G	2d/
2C/	2c\	.	2e/
=79	=79	=79	=79
2F\	2d\	1r	2f/
2E\	2G/	.	2g/
2D\	2B-\	2r	2f/
2F\	2A/	[2d\	2a/
=80	=80	=80	=80
1E-i	1G	4d\]	2b-\
.	.	4c\	.
.	.	4c\	1g
.	.	4B-\	.
1D	1A	[1d	.
.	.	.	2f#i/
=81	=81	=81	=81
2r	1G	1d]	2g/
1G	.	.	1b-
.	2r	2r	.
2F\	[2d\	[2f\	2a/
=82	=82	=82	=82
2D\	2d\]	2f\]	2f/
2E\	2c\	4e\	2g/
.	.	4d\	.
2F\	2A/	2c\	2a/
2G\	2B-\	4B-\	2d/
.	.	4A/	.
=83	=83	=83	=83
2E\	2c\	2G/	2g/
2F\	2d\	2A/	2f/
2G\	2B-\	1G	2d/
2C/	2c\	.	2e/
=84	=84	=84	=84
2F\	2d\	1r	2f/
2E\	2G/	.	2g/
2D\	2B-\	2r	2f/
2F\	2A/	[2d\	2a/
=85	=85	=85	=85
1E-i	1G	4d\]	2b-\
.	.	4c\	.
.	.	4c\	1g
.	.	4B-\	.
1D	1A	[1dl	.
.	.	.	2f#i/
=86	=86	=86	=86
0GGl	0Gl	0d]	0gl
!!LO:LB:i:g=z
=87||	=87||	=87||	=87||
*>C	*>C	*>C	*>C
!!section: Osanna
!!!OMD: Osanna
*M3/1	*M3/1	*M3/1	*M3/1
*met(3)	*met(3)	*met(3)	*met(3)
1.GG	[0.G	0d	1.g
2AA/	.	.	2f/
1BB-	.	1d	1d
=88	=88	=88	=88
1C	1G]	1c	1e
1D	0F	1A	1f
1BB-	.	1d	[1b-
=89	=89	=89	=89
1.E-i	0G	1B-	2b-\]
.	.	.	2a/
.	.	1e-	2g/
2D\	.	.	2f/
1BB-	[1B-	2d\	1f
.	.	2e-i\	.
=90	=90	=90	=90
1D	1B-]	2f\	0b-
.	.	2d\	.
1E-i	0c	1g	.
1F	.	2f\	1a
.	.	2e-i\	.
=91	=91	=91	=91
1.G	0B-	2d\	1.b-
.	.	2c\	.
.	.	1B-	.
2F\	.	.	2a/
1E	1r	2c\	1g
.	.	2B-\	.
=92	=92	=92	=92
1F	0A	2A/	1.a
.	.	2G/	.
0D	.	0F	.
.	.	.	2g/
.	1B-	.	1f
=93	=93	=93	=93
1C	0c	1G	1e
1AA	.	1A	1f
1BB-	1B-	1G	[1g
=94	=94	=94	=94
1C	1G	1c	2g/]
.	.	.	2f/
1BB-	1B-	1d	1d
1C	1A	1c	1e
=95	=95	=95	=95
1D	1F	1A	1f
1E	1G	1G	1e
1F	1A	[1d	1d
=96	=96	=96	=96
1G	1B-	2d\]	1d
.	.	2B-\	.
1C	1.c	1.e-	1.a
[1E-i	.	.	.
.	2B-\	2d\	2g/
=97	=97	=97	=97
1E-]	1G	2B-\	0g
.	.	2c\	.
0D	0A	[0d	.
.	.	.	1f#i
=98	=98	=98	=98
0.GG	0G	0d]	0g
.	1r	1r	1r
=99	=99	=99	=99
0.r	0.r	1.g	0b-
.	.	2f\	.
.	.	1d	1b-
=100	=100	=100	=100
0.r	0.r	1.e-	2g/
.	.	.	2a/
.	.	.	2b-\
.	.	2c\	2cc\
.	.	1d	1a
=101	=101	=101	=101
0.r	0.r	0e-	1g
.	.	.	0b-
.	.	1d	.
=102	=102	=102	=102
0.r	0.r	1c	1cc
.	.	1B-	1dd
.	.	1A	1cc
=103	=103	=103	=103
0.r	0.r	1B-	1dd
.	.	1c	1.ee-i
.	.	[1d	.
.	.	.	2dd\
=104	=104	=104	=104
0.r	0.r	1d]	0dd
.	.	0e-i	.
.	.	.	1cc
=105	=105	=105	=105
1.G	0B-	0.d	0dd
2F\	.	.	.
1D	1B-	.	1r
=106	=106	=106	=106
1.E-i	2G/	0.r	0.r
.	2A/	.	.
.	2B-\	.	.
2C/	2c\	.	.
1D	1A	.	.
=107	=107	=107	=107
0E-i	1G	0.r	0.r
.	0B-	.	.
1D	.	.	.
=108	=108	=108	=108
1C	1c	0.r	0.r
1BB-	1d	.	.
1AA	1c	.	.
=109	=109	=109	=109
1BB-	1d	0.r	0.r
1C	1.e-i	.	.
[1D	.	.	.
.	2d\	.	.
=110	=110	=110	=110
1D]	0d	0.r	0.r
0E-i	.	.	.
.	1c	.	.
=111	=111	=111	=111
1.D	0d	0f	1.dd
2E\	.	.	2cc\
1F	1r	1f	1a
=112	=112	=112	=112
1G	0d	1B-	1b-
1D	.	1.d	0a
1F	[1d	.	.
.	.	2c\	.
=113	=113	=113	=113
1G	1d]	1B-	1b-
1A	0c	2A/	1cc
.	.	2B-\	.
1F	.	2c\	1a
.	.	2d\	.
=114	=114	=114	=114
1G	1B-	1e	1g
1F	1A	0f	1.cc
[1G	[1B-	.	.
.	.	.	2b-\
=115	=115	=115	=115
1G]	1B-]	1e	0b-
0F	0c	0f	.
.	.	.	1a
=116	=116	=116	=116
0.BB-	0B-	1.d	1b-
.	.	.	1r
.	.	2e\	.
.	1r	1f	1b-
=117	=117	=117	=117
0.r	0.r	1g	1b-
.	.	1f	1a
.	.	[1g	1b-
=118	=118	=118	=118
0.r	0.r	2g\]	1.cc
.	.	2f\	.
.	.	2e\	.
.	.	2d\	2b-\
.	.	1c	2a/
.	.	.	2g/
=119	=119	=119	=119
0.r	0.r	0d	1f
.	.	.	1.a
.	.	2c\	.
.	.	2B-\	2g/
=120	=120	=120	=120
0.r	0.r	2A/	0g
.	.	2G/	.
.	.	1A	.
.	.	1A	1f#i
=121	=121	=121	=121
1r	1r	0G	0g
1.G	0B-	.	.
.	.	1r	1r
2F\	.	.	.
=122	=122	=122	=122
2D\	1B-	0.r	0.r
2E\	.	.	.
1F	1A	.	.
[1G	1B-	.	.
=123	=123	=123	=123
2G\]	1.c	0.r	0.r
2F\	.	.	.
2E\	.	.	.
2D\	2B-\	.	.
1C	2A/	.	.
.	2G/	.	.
=124	=124	=124	=124
0D	1F	0.r	0.r
.	1.A	.	.
2C/	.	.	.
2BB-/	2G/	.	.
=125	=125	=125	=125
2AA/	0G	0.r	0.r
2GG/	.	.	.
1AA	.	.	.
1AA	1F#i	.	.
=126	=126	=126	=126
0GG	0G	0d	0g
1r	1r	1d	1f
=127	=127	=127	=127
0G	1B-	1.d	1g
.	1B-	.	1e
.	.	2B-\	.
1F	1A	1c	1f
=128	=128	=128	=128
1G	1B-	1B-	1d
1E	0c	1G	1e
1F	.	1A	1c
=129	=129	=129	=129
1D	1B-	0B-	1d
0E-i	1G	.	0g
.	1B-	[1e-i	.
=130	=130	=130	=130
1C	1c	1e-]	2f/
.	.	.	2e-i/
0D	0A	0d	1f
.	.	.	1f
=131	=131	=131	=131
1.G	1r	1r	1g
.	1r	1d	1.dd
2F\	.	.	.
1D	[1d	[1f	.
.	.	.	2cc\
=132	=132	=132	=132
0F	2d\]	2f\]	1a
.	2c\	2e\	.
.	1A	1c	0cc
1E-i	[1c	[1e-	.
=133	=133	=133	=133
1C	1c]	1e-]	1cc
1.E-i	1B-	1e-i	1g
.	1G	1B-	[1b-
2D\	.	.	.
=134	=134	=134	=134
1BB-	1.B-	1.d	2b-\]
.	.	.	2a/
0D	.	.	1f
.	2A/	2c\	.
.	1F	1A	[1a
=135	=135	=135	=135
1C	0A	0c	1a]
1AA	.	.	1a
[1C	1G	1c	1e
=136	=136	=136	=136
2C/]	1E	0G	1.g
2BB-/	.	.	.
1GG	1.G	.	.
.	.	.	2f/
[1G	.	1r	1d
.	2F/	.	.
=137	=137	=137	=137
2G\]	1D	1d	1.dd
2F\	.	.	.
1D	1.d	1.f	.
.	.	.	2cc\
[1F	.	.	1a
.	2c\	2e\	.
=138	=138	=138	=138
1F]	1A	1c	0cc
1E-i	0c	0e-	.
1C	.	.	1cc
=139	=139	=139	=139
1.E-i	1B-	1e-	1g
.	1G	1B-	1.b-
2D\	.	.	.
1BB-	[1B-	[1d	.
.	.	.	2a/
=140	=140	=140	=140
0D	2B-\]	2d\]	1f
.	2A/	2c\	.
.	1F	1A	0a
1C	[1A	[1c	.
=141	=141	=141	=141
1AA	1A]	1c]	1a
1.C	1G	1c	1e
.	1E	1G	[1g
2BB-/	.	.	.
=142	=142	=142	=142
1GG	1.G	1d	1g]
1AA	.	1c	1c
.	2F/	.	.
1BB-	1D	1d	1f
=143	=143	=143	=143
1C	1E	1r	1e
1D	1F	0d	1.a
[1E-i	[1G	.	.
.	.	.	2g/
=144	=144	=144	=144
1E-]	1G]	1c	0g
0D	0A	0d	.
.	.	.	1f#i
=145	=145	=145	=145
0.GGl	0.Gl	0.dl	0.gl
!!LO:LB:i:g=z
!!LO:TX:rj:i:Y=30:t=fine
=146||	=146||	=146||	=146||
*>D	*>D	*>D	*>D
!!section: Benedictus
!!!OMD: Benedictus
*M2/1	*M2/1	*M2/1	*M2/1
*met(C|)	*met(C|)	*met(C|)	*met(C|)
0r	0r	1.G	0r
.	.	4F/	.
.	.	4E/	.
=147	=147	=147	=147
0r	0r	1F	1r
.	.	2.G/	[1g
.	.	4A/	.
=148	=148	=148	=148
0r	0r	2B-\	2g/]
.	.	2c\	4f/
.	.	.	4e/
.	.	2d\	1f
.	.	[2B-\	.
=149	=149	=149	=149
0r	0r	2B-\]	1g
.	.	2c\	.
.	.	2d\	1b-
.	.	2B-\	.
=150	=150	=150	=150
0r	0r	1A	1cc
.	.	2r	1b-
.	.	[2G/	.
=151	=151	=151	=151
0r	0r	2G/]	2r
.	.	2F/	2a/
.	.	1G	1b-
=152	=152	=152	=152
0r	0r	1A	2.cc\
.	.	.	4b-\
.	.	1B-	2g/
.	.	.	2b-\
=153	=153	=153	=153
0r	0r	2.c\	2a/
.	.	.	1g
.	.	4B-\	.
.	.	2G/	.
.	.	2B-\	[2f/
=154	=154	=154	=154
0r	0r	2A/	2f/]
.	.	1G	2.b-\
.	.	.	4a/
.	.	2F/	[2a/
=155	=155	=155	=155
0r	0r	1G	4a/]
.	.	.	4g/
.	.	.	1g
.	.	1A	.
.	.	.	2f#i/
=156	=156	=156	=156
2r	0r	0G	0g
1C	.	.	.
4BB-/	.	.	.
4AA/	.	.	.
=157	=157	=157	=157
1BB-	2r	0r	0r
.	1G	.	.
1C	.	.	.
.	4F/	.	.
.	4E/	.	.
=158	=158	=158	=158
1D	1F	0r	0r
1E-i	1G	.	.
=159	=159	=159	=159
1D	1A	0r	0r
2r	1B-	.	.
[2G\	.	.	.
=160	=160	=160	=160
2G\]	1A	0r	0r
2F\	.	.	.
4G\	2r	.	.
4F\	.	.	.
4E\	[2d\	.	.
4D\	.	.	.
=161	=161	=161	=161
1E	2d\]	0r	0r
.	2c\	.	.
[1D	4d\	.	.
.	4c\	.	.
.	4B-\	.	.
.	4A/	.	.
=162	=162	=162	=162
0D]	1B-	0r	0r
.	1A	.	.
=163	=163	=163	=163
2.BB-/	2r	0r	0r
.	2.F/	.	.
4C/	.	.	.
4D\	.	.	.
4E-i\	4G/	.	.
[2D\	4A/	.	.
.	4B-\	.	.
=164	=164	=164	=164
4D\]	2A/	0r	0r
4C/	.	.	.
4BB-/	1B-	.	.
4AA/	.	.	.
2GG/	.	.	.
2AA/	[2A/	.	.
=165	=165	=165	=165
2BB-/	4A/]	0r	1r
.	4G/	.	.
2C/	1G	.	.
1AA	.	.	1cc
.	2F#i/	.	.
=166	=166	=166	=166
1GG	1G	2r	1.b-
.	.	1g	.
4GG/	1r	.	.
4AA/	.	.	.
4BB-/	.	4f\	4a/
4C/	.	4e\	4g/
=167	=167	=167	=167
2D\	0B-	2d\	2f/
1E-i	.	4G/	1g
.	.	4A/	.
.	.	4B-\	.
.	.	4c\	.
4D\	.	4d\	4f/
4C/	.	4e\	4e/
=168	=168	=168	=168
2BB-/	0B-	2f\	2d/
2GG/	.	2g\	4B-/
.	.	.	4c/
1BB-	.	2f\	4d/
.	.	.	4e/
.	.	2d\	4f/
.	.	.	4g/
=169	=169	=169	=169
1C	0A	1e	2a/
.	.	.	1g
1D	.	1d	.
.	.	.	2f#i/
=170	=170	=170	=170
1GG	1G	0d	0g
[1G	2r	.	.
.	[2B-\	.	.
=171	=171	=171	=171
2G\]	2B-\]	0r	0r
2F\	2A/	.	.
2G\	2B-\	.	.
2E\	2c\	.	.
=172	=172	=172	=172
2F\	2A/	0r	0r
2G\	2B-\	.	.
2E\	2c\	.	.
2F\	2A/	.	.
=173	=173	=173	=173
2G\	2B-\	0r	0r
2A\	2c\	.	.
2F\	2d\	.	.
[2G\	[2e-i\	.	.
=174	=174	=174	=174
4G\]	4e-\]	0r	0r
4F\	4d\	.	.
4E-i\	1d	.	.
4D\	.	.	.
1E-i	.	.	.
.	2c\	.	.
=175	=175	=175	=175
0D	0d	0r	2r
.	.	.	1dd
.	.	.	4cc\
.	.	.	4b-\
=176	=176	=176	=176
0r	0r	2r	2a/
.	.	1d	1b-
.	.	4c\	4a/
.	.	4B-\	4g/
=177	=177	=177	=177
0r	0r	2A/	2f/
.	.	1B-	2.g/
.	.	.	4a/
.	.	4A/	2b-\
.	.	4G/	.
=178	=178	=178	=178
0r	0r	2F/	2a/
.	.	2A/	2f/
.	.	2B-\	2g/
.	.	2c\	4a/
.	.	.	4g/
=179	=179	=179	=179
0r	0r	4A/	4a/
.	.	4G/	4b-\
.	.	4A/	2cc\
.	.	4B-\	.
.	.	2c\	1a
.	.	[2d\	.
=180	=180	=180	=180
0r	0r	2d\]	2b-\
.	.	2.e-i\	2.cc\
.	.	4d\	4b-\
.	.	4c\	[2b-\
.	.	4B-\	.
=181	=181	=181	=181
0r	0r	1c	2b-\]
.	.	.	2a/
.	.	1B-	[1b-
=182	=182	=182	=182
1GG	2r	2r	1b-]
.	1B-	4G/	.
.	.	4A/	.
4GG/	.	4B-\	2r
4AA/	.	4c\	.
4BB-/	4A/	4d\	[2b-\
4C/	4G/	4e\	.
=183	=183	=183	=183
2D\	2F/	2f\	2b-\]
2E\	2G/	2.e\	2b-\
2F\	2A/	.	2a/
.	.	4d\	.
2G\	2G/	2d\	2b-\
=184	=184	=184	=184
2C/	4E/	1c	2.cc\
.	4F/	.	.
2.E-i\	4G/	.	.
.	4A/	.	4b-\
.	4B-\	2r	2g/
4D\	4c\	.	.
2BB-/	2d\	2f\	2b-\
=185	=185	=185	=185
2C/	4c\	2e\	2a/
.	4B-\	.	.
2D\	2A/	2d\	2f/
2E\	2G/	2c\	2g/
2F\	2c\	[2f\	[2a/
=186	=186	=186	=186
2G\	2B-\	4f\]	4a/]
.	.	4e\	4g/
2E\	2G/	4d\	1g
.	.	4c\	.
1D	1A	1d	.
.	.	.	2f#i/
=187	=187	=187	=187
1GG	2r	1B-	1g
.	1d	.	.
1G	.	2r	2r
.	2B-\	2B-\	[2g/
=188	=188	=188	=188
2E\	2c\	2G/	2g/]
2F\	2d\	2A/	2f/
2G\	2G/	2B-\	2b-\
2C/	[2c\	2c\	[2a/
=189	=189	=189	=189
1F	2c\]	2F/	4a/]
.	.	.	4b-\
.	2A/	1f	2cc\
2D\	2B-\	.	2b-\
2E\	2c\	2e\	2g/
=190	=190	=190	=190
2F\	2F/	2c\	2a/
2BB-/	1B-	2d\	2d/
1E-	.	2G/	2.g/
.	2G/	[2g\	.
.	.	.	4f/
=191	=191	=191	=191
2C/	2A/	2g\]	2e/
2D\	2B-\	2f\	2d/
2E\	2G/	2c\	2r
[2D\	2A/	2d\	[2a/
=192	=192	=192	=192
2D\]	2B-\	1e-i	4a/]
.	.	.	4d/
2C/	2c\	.	2.g/
1D	1A	1d	.
.	.	.	4f#i/
.	.	.	4f#i/
.	.	.	4e/
=193	=193	=193	=193
1GG	2r	1B-	1g
.	1d	.	.
1G	.	2r	2r
.	2B-\	2B-\	[2g/
=194	=194	=194	=194
2E\	2c\	2G/	2g/]
2F\	2d\	2A/	2f/
2G\	2G/	2B-\	2b-\
2C/	[2c\	2c\	[2a/
=195	=195	=195	=195
1F	2c\]	2F/	4a/]
.	.	.	4b-\
.	2A/	1f	2cc\
2D\	2B-\	.	2b-\
2E\	2c\	2e\	2g/
=196	=196	=196	=196
2F\	2F/	2c\	2a/
2BB-/	1B-	2d\	2d/
1E-i	.	2G/	2.g/
.	2G/	[2g\	.
.	.	.	4f/
=197	=197	=197	=197
2C/	2A/	2g\]	2e/
2D\	2B-\	2f\	2d/
2E\	2G/	2c\	2r
[2D\	2A/	2d\	[2a/
=198	=198	=198	=198
2D\]	2B-\	1e-i	4a/]
.	.	.	4d/
2C/	2c\	.	2.g/
1D	1A	1d	.
.	.	.	4f#i/
.	.	.	4f#i/
.	.	.	4e/
=199	=199	=199	=199
0GGl	0Gl	0B-l	0gl
!!LO:TX:i:Y=40:rj:t=Osanna ut supra
=||	=||	=||	=||
*-	*-	*-	*-
!!!RDF**kern: l=long note in original notation
!!!RDF**kern: i=editorial accidental
!!!ENC:	Victoria Chang 2011/04/18
!!!END:	2011/04/18/
!!!EED:	Jesse Rodin
!!!EEV:	2011/12/26/
!!attribution-level@Jos: 4 (questionable)
!!!ONB:	Translated from MusicXML and edited on 2011/12/26/ by Craig Sapp
!!muse2ps: T^@{OPR}^u^@{ONM}{. }@{OTL}^C^Bauldeweyn/Josquin?/Mouton?\n@{SCT}^i2I100v85,90,85,150c100Q8
